X:1
T:Camptown Races
T:Camptown Races
L:1/8
Q:1/8=232
M:4/4
K:C
V:1 treble 
V:1
 G2 G2 E2 G2 | A2 G2 E4 | E2 D6 | E2 D6 | G2 G2 E2 G2 | A2 G2 E4 | D3 D E2 D2 | C8 | C3 C E2 G2 | %9
 c8 | A3 A c2 A2 | G6 EF | G2 G2 EE GG | A2 G2 E4 | D2 EF E2 DD | C8 |[K:D] A2 A2 F2 A2 | %17
 B2 A2 F4 | F2 E6 | F2 E6 | A2 A2 F2 A2 | B2 A2 F4 | E3 E F2 E2 | D8 | D3 D F2 A2 | d8 | %26
 B3 B d2 B2 | A6 FG | A2 A2 FF AA | B2 A2 F4 | E2 FG F2 EE | D8 || %32

